X: 16536
T: Halloween
R: reel
M: 4/4
K: Dminor
|:A,2|D2DE FEDC|B,4 G,2B,2|A,2DF AGFD|EFGE CDEC|
D2DE FEDC|B,4 G,2B,2|A,2DF AGFE|F2D2 D2:|
|:E2|F2EF G2FE|F2ED E2FE|D2FA C2FA|B,2DF A,2=B,^C|
D^CDE FED=C|B,4 G,2B,2|A,2A2 AGFE|F2D2 D2:|

